assets/social-grey/SocialGrey8.svg

<svg xmlns="http://www.w3.org/2000/svg" viewBox="0 0 32 32"><path d="M26 0h-5.9l-.8.8-2.7 5.3-.6.3H6v8h5.6l.3.5L6 26.1V32h5.9l.7-.7 2.8-5.3.6-.4h10v-8h-5.5l-.5-.5 6-11.2z"/></svg>

<svg xmlns="http://www.w3.org/2000/svg" x="0" y="0" version="1.1" xml:space="preserve" viewBox="0 0 32 32"><path d="M26 0 20.1 0 19.3.8 16.6 6.1 16 6.4 6 6.4 6 14.4 11.6 14.4 11.9 14.9 6 26.1 6 32 11.9 32 12.6 31.3 15.4 26 16 25.6 26 25.6 26 17.6 20.5 17.6 20 17.1 26 5.9z"/></svg>
